X:1
T:Faithfulness (MacFarren), LM
T:Faithfulness (MacFarren), LM
T:George Alexander MacFarren (1813-1887)
T:Public Domain Courtesy of the Cyber Hymnal™
C:George Alexander MacFarren (1813-1887)
Z:Public Domain
Z:Courtesy of the Cyber Hymnal™
%%score ( 1 2 ) ( 3 4 )
L:1/8
Q:1/4=102
M:3/4
K:G
V:1 treble 
V:2 treble 
V:3 bass 
V:4 bass 
V:1
 [B,D][CD] D | E3 [CF] [CG][CA] | ([CD]2 [B,G]2) [DB]2 | [EA]>[EA] [EA][DB] [Cc][A,E] | %4
 (G2 F)[DF] [FB]>[FA] | (A2 G)[EG] [Gc]>[GB] | (B2 A)[ce] [Bd][Ac] | [GB][DG] E2 F2 | [B,G]3 |] %9
V:2
 x2 D | (D2 C) x3 | x6 | x6 | D3 x3 | E3 x3 | D3 x3 | x2 E2 (D>C) | x3 |] %9
V:3
 [G,,G,][G,,G,] [G,,G,] | [C,G,]3 [D,G,] [E,G,][F,G,] | G,4 [G,,G,]2 | %3
 [C,G,]>[C,G,] [C,G,][C,G,] [C,G,][C,G,] | (B,2 A,)[=D,A,] [^D,B,]>[D,B,] | %5
 [E,B,]3 [E,B,] [E,C]>[E,C] | [F,C]3 [D,F,] [E,G,][F,A,] | [G,B,][B,,D] [C,C]2 (B,>A,) | %8
 [G,,G,]3 |] %9
V:4
 x3 | x6 | G,4 x2 | x6 | ^D,3 x3 | x6 | x6 | x4 D,2 | x3 |] %9

